;TIME:1841.21
;Filament used:4.78105m
;Layer height:0.200
; HEADER_BLOCK_START
; generated by Creality_Print V6.1.2.2458 on 2025-06-24 at 17:30:17
; total layer number: 65
; filament_density: 1.24
; filament_diameter: 1.75
; max_z_height: 13.00
; HEADER_BLOCK_END

; MINX = 74.19
; MINY = 74.19
; MINZ = 0.00
; MAXX = 145.81
; MAXY = 145.81
; MAXZ = 13.00

; THUMBNAIL_BLOCK_START

;
; THUMBNAIL_BLOCK_END

; THUMBNAIL_BLOCK_START

;
; THUMBNAIL_BLOCK_END

; external perimeters extrusion width = 0.42mm
; perimeters extrusion width = 0.45mm
; infill extrusion width = 0.45mm
; solid infill extrusion width = 0.42mm
; top infill extrusion width = 0.42mm
; first layer extrusion width = 0.50mm

; EXECUTABLE_BLOCK_START
M73 P0 R30
M201 X5000 Y5000 Z500 E5000
M203 X500 Y500 Z30 E100
M204 P5000 R2500 T5000 ; sets acceleration (P, T) and retract acceleration (R), mm/sec^2
M205 X10.00 Y10.00 Z0.40 E5.00 ; sets the jerk limits, mm/sec
;TYPE:Custom
M220 S100 ;Reset Feedrate 
M221 S100 ;Reset Flowrate 
 
M140 S60 ;Set final bed temp 
G28 ;Home 
 
G92 E0 ;Reset Extruder 
G1 Z2.0 F3000 ;Move Z Axis up 
M104 S190 ;Set final nozzle temp 
G1 X-2.1 Y20 Z0.28 F5000.0 ;Move to start position 
M190 S60 ;Wait for bed temp to stabilize 
M109 S190 ;Wait for nozzle temp to stabilize 
G1 X-2.1 Y145.0 Z0.28 F1500.0 E15 ;Draw the first line 
G1 X-2.4 Y145.0 Z0.28 F5000.0 ;Move to side a little 
G1 X-2.4 Y20 Z0.28 F1500.0 E30 ;Draw the second line 
G92 E0  ;Reset Extruder 
G1 E-1.0000 F1800 ;Retract a bit 
G1 Z2.0 F3000 ;Move Z Axis up 
G1 E0.0000 F1800
G90
G21
M83 ; use relative distances for extrusion
;filament start gcode
G1 E-2 F2400
M106 S0
;LAYER_CHANGE
;Z:0.2
;HEIGHT:0.2
;BEFORE_LAYER_CHANGE
;0.2
G92 E0

;_SET_FAN_SPEED_CHANGING_LAYER
M204 P500
M205 X10 Y10
; printing object ModularLidv1.stl id:15 copy 0
M204 T500
G1 Z.4 F9000
G1 X142.723 Y107.832
G1 Z.2
G1 E2 F1800
;TYPE:Inner wall
;WIDTH:0.499999
G1 X142.802 Y108.518 E.02493
G1 X142.933 Y110.562 E.07395
G1 X142.951 Y111.74 E.04256
G1 X142.881 Y113.794 E.07419
G1 X142.785 Y114.957 E.04214
G1 X142.515 Y117.003 E.07452
G1 X142.308 Y118.144 E.04186
G1 X141.837 Y120.166 E.07497
G1 X141.521 Y121.278 E.04172
G1 X140.854 Y123.256 E.07538
G1 X140.435 Y124.324 E.04143
G1 X139.549 Y126.293 E.07794
G1 X138.575 Y128.137 E.0753
G1 X137.996 Y129.117 E.04109
G1 X136.845 Y130.87 E.07575
G1 X136.176 Y131.789 E.04101
G1 X134.856 Y133.433 E.07613
G1 X134.105 Y134.282 E.04093
G1 X132.635 Y135.794 E.07615
G1 X131.855 Y136.524 E.03857
G1 X130.209 Y137.927 E.0781
G1 X128.523 Y139.191 E.07606
G1 X127.592 Y139.825 E.04067
G1 X125.785 Y140.932 E.07651
G1 X124.799 Y141.476 E.04065
G1 X122.77 Y142.467 E.08153
G1 X121.516 Y142.998 E.04919
G1 X120.763 Y143.254 E.0287
G1 X118.782 Y143.83 E.07448
G1 X117.243 Y144.194 E.05711
G1 X115.117 Y144.576 E.07798
G1 X112.708 Y144.842 E.0875
G1 X110.91 Y144.94 E.06502
G1 X109.072 Y144.94 E.06637
G1 X106.743 Y144.799 E.08424
G1 X104.875 Y144.575 E.06794
G1 X102.816 Y144.206 E.07554
G1 X100.788 Y143.716 E.07531
G1 X98.945 Y143.158 E.06955
G1 X96.852 Y142.384 E.08057
G1 X95.068 Y141.602 E.07033
G1 X94.054 Y141.103 E.04078
G1 X91.873 Y139.88 E.09029
G1 X90.294 Y138.756 E.06999
G3 X86.233 Y135.147 I23.601 J-30.642 E.19631
G1 X84.775 Y133.532 E.07856
G1 X83.584 Y132.044 E.06883
G1 X82.791 Y130.951 E.04874
G1 X81.716 Y129.309 E.07088
G1 X81.058 Y128.189 E.04692
G1 X80.129 Y126.423 E.07202
G1 X79.598 Y125.279 E.04554
G1 X78.835 Y123.413 E.07281
G1 X78.425 Y122.248 E.04458
G1 X77.84 Y120.298 E.07352
G1 X77.548 Y119.117 E.04392
G1 X77.15 Y117.1 E.07425
G1 X76.977 Y115.91 E.04342
G1 X76.775 Y113.853 E.0746
G1 X76.719 Y112.667 E.04288
G1 X76.719 Y110.596 E.07479
G1 X76.779 Y109.421 E.04245
G1 X76.982 Y107.35 E.07513
G1 X77.155 Y106.194 E.04221
G1 X77.564 Y104.142 E.07556
G1 X77.849 Y103.012 E.04208
G1 X78.46 Y101.009 E.0756
G1 X78.852 Y99.921 E.04174
G1 X79.659 Y97.988 E.07565
G1 X80.154 Y96.95 E.04151
G1 X81.152 Y95.102 E.07584
G1 X81.747 Y94.122 E.0414
G1 X82.931 Y92.375 E.07619
G1 X83.619 Y91.462 E.04129
G1 X84.969 Y89.848 E.07595
G1 X86.511 Y88.239 E.08047
G1 X88.066 Y86.822 E.07597
G1 X88.94 Y86.103 E.04087
G1 X90.641 Y84.844 E.0764
G1 X91.584 Y84.218 E.04089
G3 X95.161 Y82.202 I24.253 J38.856 E.14831
G1 X96.922 Y81.332 E.07092
G1 X98.302 Y80.743 E.05417
G1 X100.567 Y79.936 E.0868
G1 X102.168 Y79.479 E.06011
G1 X104.117 Y79.044 E.0721
G1 X106.077 Y78.735 E.07164
G1 X107.835 Y78.567 E.06378
G1 X110.177 Y78.493 E.08461
G1 X111.977 Y78.552 E.06501
G1 X113.933 Y78.736 E.07094
G1 X115.872 Y79.042 E.07087
G1 X117.667 Y79.437 E.06636
G1 X119.67 Y80.011 E.07524
G1 X121.415 Y80.63 E.06686
G1 X123.222 Y81.398 E.07087
G1 X125.06 Y82.323 E.07429
G1 X126.674 Y83.262 E.06743
G1 X128.305 Y84.352 E.07083
G1 X129.943 Y85.603 E.07441
G3 X132.81 Y88.072 I-38.582 J47.708 E.13661
G3 X135.6 Y91.045 I-22.747 J24.148 E.14732
M73 P1 R30
M73 P1 R30
G1 X136.717 Y92.48 E.06568
G1 X137.483 Y93.573 E.04818
G1 X138.494 Y95.183 E.06864
G1 X139.122 Y96.303 E.04636
G1 X139.99 Y98.054 E.07056
G1 X140.49 Y99.198 E.04508
G1 X141.189 Y101.054 E.07161
G1 X141.564 Y102.217 E.04411
G1 X142.083 Y104.156 E.07248
G1 X142.337 Y105.332 E.04343
G1 X142.666 Y107.335 E.07331
G1 X142.718 Y107.792 E.01661
G1 X143.119 Y107.272 F9000
;TYPE:Outer wall
G1 F1800
G1 X143.257 Y108.477 E.0438
G1 X143.389 Y110.544 E.07476
G1 X143.408 Y111.745 E.04337
G1 X143.338 Y113.821 E.075
G1 X143.24 Y115.006 E.04294
G1 X142.966 Y117.074 E.07533
G1 X142.755 Y118.237 E.04266
G1 X142.28 Y120.281 E.07577
G1 X141.958 Y121.413 E.04252
G1 X141.283 Y123.413 E.07618
G1 X140.856 Y124.502 E.04224
G1 X139.96 Y126.493 E.07886
G1 X138.974 Y128.36 E.07621
G1 X138.384 Y129.359 E.04188
G1 X137.221 Y131.13 E.07654
G1 X136.539 Y132.066 E.0418
G1 X135.206 Y133.728 E.07692
G1 X134.44 Y134.593 E.04171
G1 X132.955 Y136.12 E.07692
G1 X132.16 Y136.865 E.03934
G1 X130.494 Y138.284 E.079
G1 X128.789 Y139.563 E.07696
G1 X127.84 Y140.209 E.04144
G1 X126.015 Y141.327 E.07729
G1 X125.01 Y141.881 E.04144
G1 X122.96 Y142.883 E.08239
G1 X121.678 Y143.425 E.05024
G1 X120.9 Y143.69 E.02967
G1 X118.899 Y144.272 E.07527
G1 X117.336 Y144.641 E.05798
G1 X115.183 Y145.028 E.07899
G1 X112.746 Y145.298 E.08852
G1 X110.923 Y145.397 E.06593
G1 X109.058 Y145.397 E.06732
G1 X106.702 Y145.254 E.08522
G1 X104.808 Y145.027 E.0689
G1 X102.722 Y144.654 E.07651
G1 X100.668 Y144.158 E.07627
G1 X98.799 Y143.591 E.07052
G1 X96.681 Y142.808 E.08155
G1 X94.875 Y142.017 E.07119
G1 X93.841 Y141.508 E.04159
G1 X91.628 Y140.267 E.09162
G1 X90.019 Y139.122 E.07132
G3 X85.903 Y135.464 I23.921 J-31.059 E.19895
G1 X84.427 Y133.828 E.07957
G1 X83.22 Y132.321 E.06971
G1 X82.415 Y131.211 E.04953
G1 X81.327 Y129.55 E.07168
G1 X80.658 Y128.411 E.04771
G1 X79.72 Y126.626 E.07281
G1 X79.179 Y125.462 E.04633
G1 X78.408 Y123.575 E.0736
G1 X77.991 Y122.39 E.04537
G1 X77.399 Y120.419 E.07431
G1 X77.102 Y119.216 E.04472
G1 X76.699 Y117.177 E.07505
G1 X76.523 Y115.965 E.04422
G1 X76.319 Y113.886 E.0754
G1 X76.262 Y112.678 E.04368
G1 X76.262 Y110.584 E.0756
G1 X76.323 Y109.387 E.04326
G1 X76.528 Y107.294 E.07594
G1 X76.705 Y106.116 E.04302
G1 X77.118 Y104.041 E.07638
G1 X77.409 Y102.889 E.0429
G1 X78.026 Y100.864 E.07642
G1 X78.426 Y99.756 E.04256
G1 X79.241 Y97.801 E.07647
G1 X79.747 Y96.743 E.04233
G1 X80.755 Y94.875 E.07666
G1 X81.362 Y93.875 E.04223
G1 X82.559 Y92.109 E.07702
G1 X83.261 Y91.178 E.04212
G1 X84.628 Y89.543 E.07692
G1 X86.191 Y87.912 E.08158
G1 X87.766 Y86.476 E.07694
G1 X88.658 Y85.743 E.04171
G1 X90.378 Y84.47 E.07725
G1 X91.341 Y83.83 E.04173
G3 X94.952 Y81.795 I24.486 J39.228 E.14973
G1 X96.731 Y80.916 E.07164
G1 X98.136 Y80.317 E.05514
G1 X100.427 Y79.5 E.08783
G1 X102.055 Y79.036 E.06112
G1 X104.031 Y78.594 E.07311
G1 X106.019 Y78.281 E.07266
G1 X107.806 Y78.11 E.06481
G1 X110.178 Y78.035 E.08567
G1 X112.006 Y78.095 E.06604
G1 X113.99 Y78.282 E.07196
G1 X115.957 Y78.592 E.07188
G1 X117.779 Y78.994 E.06738
G1 X119.81 Y79.575 E.07627
G1 X121.581 Y80.204 E.06788
G1 X123.414 Y80.983 E.0719
G1 X125.278 Y81.921 E.07533
G1 X126.916 Y82.875 E.06844
G1 X128.571 Y83.98 E.07186
G1 X130.229 Y85.246 E.07531
G3 X133.122 Y87.738 I-38.945 J48.154 E.13789
G3 X135.954 Y90.755 I-23.11 J24.53 E.1495
G1 X137.085 Y92.209 E.06651
G1 X137.864 Y93.321 E.04901
G1 X138.887 Y94.95 E.06946
G1 X139.526 Y96.09 E.04719
G1 X140.405 Y97.861 E.07139
G1 X140.913 Y99.026 E.04591
G1 X141.621 Y100.903 E.07243
G1 X142.003 Y102.087 E.04492
G1 X142.528 Y104.049 E.0733
G1 X142.787 Y105.246 E.04424
G1 X143.112 Y107.233 E.07268
G1 E-2 F2400
;WIPE_START
G1 F9000
G1 X143.257 Y108.477
G1 X143.369 Y110.221
;WIPE_END
G1 Z.6
G1 X135.812 Y91.539
G1 Z.6
G1 Z.2
G1 E2 F1800
;TYPE:Bottom surface
;WIDTH:0.501306
G1 F4800
G2 X132.575 Y88.322 I-182.588 J180.418 E.16524
G2 X128.738 Y85.114 I-35.661 J38.759 E.18119
G1 X136.753 Y93.129 E.41047
G3 X137.971 Y94.995 I-17.905 J13.015 E.08071
G1 X126.603 Y83.628 E.5821
G1 X125.029 Y82.701 E.06616
G1 X138.846 Y96.519 E.70757
G1 X139.484 Y97.805 E.05199
G1 X123.703 Y82.023 E.80813
G2 X122.49 Y81.459 I-4.984 J9.127 E.04845
G1 X140.028 Y98.997 E.89804
G3 X140.451 Y100.069 I-10.36 J4.716 E.04176
G1 X121.363 Y80.98 E.97747
G1 X120.35 Y80.616 E.03897
G1 X140.844 Y101.109 E1.04943
G3 X141.157 Y102.071 I-9.703 J3.693 E.03663
G1 X119.366 Y80.28 E1.11585
G1 X118.458 Y80.02 E.03422
G1 X141.412 Y102.974 E1.17542
G1 X141.649 Y103.859 E.03317
G1 X117.552 Y79.763 E1.23392
G1 X116.721 Y79.58 E.03082
G1 X141.852 Y104.711 E1.28691
G3 X142.022 Y105.529 I-8.031 J2.095 E.03027
G1 X115.89 Y79.397 E1.33818
G2 X115.114 Y79.269 I-1.441 J6.352 E.02848
G1 X142.15 Y106.305 E1.38441
G1 X142.277 Y107.08 E.02845
G1 X114.345 Y79.148 E1.43033
G2 X113.597 Y79.049 I-1.169 J5.939 E.02732
G1 X142.378 Y107.829 E1.47378
G3 X142.461 Y108.561 I-7.23 J1.194 E.02667
G1 X112.881 Y78.981 E1.51469
G1 X112.166 Y78.914 E.02603
G1 X142.505 Y109.253 E1.55362
G1 X142.55 Y109.946 E.02513
G1 X111.482 Y78.878 E1.59089
G1 X110.812 Y78.856 E.02428
M73 P2 R30
M73 P2 R30
G1 X142.591 Y110.635 E1.62733
G1 X142.601 Y111.294 E.02385
G1 X110.144 Y78.837 E1.66207
G1 X109.515 Y78.857 E.02276
G1 X142.601 Y111.942 E1.69424
G1 X142.58 Y112.569 E.02271
G1 X108.887 Y78.876 E1.72532
G1 X108.259 Y78.896 E.02276
G1 X142.559 Y113.196 E1.7564
G3 X142.535 Y113.821 I-6.508 J.067 E.02264
G1 X107.644 Y78.929 E1.7867
G1 X107.052 Y78.986 E.02152
G1 X142.486 Y114.42 E1.81448
G3 X142.432 Y115.014 I-6.036 J-.245 E.02163
M73 P2 R29
M73 P2 R29
G1 X106.46 Y79.042 E1.84203
G2 X105.882 Y79.112 I.282 J4.751 E.0211
G1 X142.356 Y115.587 E1.86777
G1 X142.28 Y116.159 E.02091
G1 X105.322 Y79.201 E1.89256
G1 X104.762 Y79.289 E.02053
G1 X142.205 Y116.732 E1.91735
G3 X142.114 Y117.29 I-5.852 J-.663 E.02047
G1 X104.202 Y79.377 E1.94139
G2 X103.671 Y79.495 I.66 J4.255 E.01971
G1 X142.015 Y117.838 E1.96349
G3 X141.902 Y118.374 I-5.508 J-.878 E.01983
G1 X103.141 Y79.613 E1.98486
G1 X102.611 Y79.731 E.01966
G1 X141.78 Y118.9 E2.00574
G1 X141.657 Y119.426 E.01955
G1 X102.089 Y79.858 E2.02618
G1 X101.585 Y80.002 E.01899
G1 X141.535 Y119.952 E2.04574
G3 X141.397 Y120.462 I-5.373 J-1.182 E.01914
G1 X101.081 Y80.146 E2.06449
G2 X100.581 Y80.294 I.907 J3.953 E.01888
G1 X141.253 Y120.967 E2.08272
G3 X141.098 Y121.46 I-5.125 J-1.342 E.01872
G1 X100.103 Y80.465 E2.09924
G1 X99.625 Y80.635 E.01837
G1 X140.935 Y121.944 E2.11534
G1 X140.771 Y122.429 E.01852
G1 X99.147 Y80.805 E2.13144
G1 X98.67 Y80.976 E.01837
G1 X140.607 Y122.914 E2.14754
G3 X140.434 Y123.388 I-5.021 J-1.569 E.0183
M73 P3 R29
M73 P3 R29
G1 X98.203 Y81.158 E2.16252
G1 X97.749 Y81.352 E.01789
G1 X140.251 Y123.854 E2.17643
G3 X140.063 Y124.314 I-4.752 J-1.668 E.01802
G1 X97.295 Y81.546 E2.19009
G2 X96.85 Y81.75 I1.62 J4.11 E.01771
G1 X139.862 Y124.761 E2.20253
G1 X139.661 Y125.209 E.01775
G1 X96.417 Y81.964 E2.21444
G1 X95.983 Y82.178 E.01752
G1 X139.46 Y125.656 E2.22636
G1 X139.259 Y126.103 E.01775
G1 X95.549 Y82.393 E2.23827
G2 X95.12 Y82.612 I3.222 J6.813 E.01744
G1 X139.037 Y126.529 E2.24885
G1 X138.813 Y126.953 E.01737
G1 X94.698 Y82.838 E2.25902
G1 X94.275 Y83.064 E.01735
G1 X138.589 Y127.377 E2.26918
G1 X138.365 Y127.802 E.01737
G1 X93.853 Y83.29 E2.27935
G2 X93.433 Y83.519 I2.341 J4.788 E.01731
G1 X138.131 Y128.216 E2.28883
G1 X137.89 Y128.623 E.01714
G1 X93.027 Y83.76 E2.29734
G1 X92.62 Y84.002 E.01713
G1 X137.645 Y129.027 E2.30564
G1 X137.388 Y129.418 E.01695
G1 X92.213 Y84.243 E2.31331
G1 X91.806 Y84.484 E.01713
G1 X137.131 Y129.81 E2.32098
G1 X136.874 Y130.201 E.01695
G1 X91.415 Y84.742 E2.32786
G1 X91.025 Y85 E.01693
G1 X136.617 Y130.592 E2.33464
G3 X136.348 Y130.971 I-4.073 J-2.616 E.01684
G1 X90.645 Y85.268 E2.34033
G1 X90.272 Y85.543 E.01678
M73 P4 R29
M73 P4 R29
G1 X136.074 Y131.346 E2.34542
G3 X135.795 Y131.715 I-4.049 J-2.768 E.01676
G1 X89.9 Y85.819 E2.35022
G1 X89.527 Y86.095 E.01678
G1 X135.507 Y132.075 E2.35452
G1 X135.218 Y132.434 E.0167
G1 X89.154 Y86.37 E2.35881
G2 X88.799 Y86.663 I2.666 J3.607 E.01668
G1 X134.929 Y132.794 E2.36225
G1 X134.641 Y133.153 E.0167
G1 X88.443 Y86.956 E2.36568
G2 X88.097 Y87.258 I2.803 J3.563 E.01664
G1 X134.339 Y133.5 E2.36796
G1 X134.035 Y133.844 E.01663
G1 X87.758 Y87.567 E2.36974
G1 X87.418 Y87.876 E.01662
G1 X133.724 Y134.181 E2.3712
G1 X133.405 Y134.51 E.0166
G1 X87.079 Y88.185 E2.3722
G2 X86.741 Y88.495 I2.115 J2.651 E.01663
G1 X133.085 Y134.839 E2.37317
G1 X132.765 Y135.168 E.0166
G1 X86.424 Y88.826 E2.37305
G1 X86.106 Y89.157 E.0166
G1 X132.446 Y135.496 E2.37293
G3 X132.114 Y135.812 I-3.552 J-3.401 E.01661
G1 X85.789 Y89.488 E2.37216
G1 X85.472 Y89.819 E.0166
G1 X131.779 Y136.126 E2.37127
G3 X131.436 Y136.431 I-3.407 J-3.484 E.01663
G1 X85.16 Y90.155 E2.3697
G1 X84.864 Y90.508 E.01666
G1 X131.086 Y136.729 E2.36689
G1 X130.736 Y137.028 E.01665
G1 X84.569 Y90.861 E2.36409
G1 X84.274 Y91.214 E.01666
G1 X130.386 Y137.326 E2.36128
G1 X130.036 Y137.624 E.01665
M73 P5 R29
M73 P5 R29
G1 X83.979 Y91.567 E2.35848
G2 X83.695 Y91.931 I3.489 J3.01 E.01673
G1 X129.668 Y137.904 E2.35417
G1 X129.297 Y138.182 E.01677
G1 X83.416 Y92.301 E2.34947
G2 X83.142 Y92.675 I3.532 J2.88 E.0168
G1 X128.927 Y138.46 E2.34455
G1 X128.557 Y138.738 E.01677
G1 X82.88 Y93.061 E2.33899
G1 X82.618 Y93.448 E.0169
G1 X128.18 Y139.01 E2.33313
G1 X127.795 Y139.272 E.01689
G1 X82.356 Y93.834 E2.32679
G1 X82.094 Y94.22 E.0169
G1 X127.409 Y139.535 E2.32044
G1 X127.007 Y139.781 E.01707
G1 X81.846 Y94.62 E2.3126
G1 X81.601 Y95.023 E.01709
G1 X126.605 Y140.028 E2.30456
G1 X126.203 Y140.274 E.01707
M73 P5 R28
M73 P5 R28
G1 X81.363 Y95.433 E2.29618
G1 X81.135 Y95.854 E.01732
G1 X125.801 Y140.52 E2.28723
G3 X125.391 Y140.758 I-2.779 J-4.323 E.01718
G1 X80.908 Y96.275 E2.27785
G1 X80.681 Y96.696 E.01732
G1 X124.973 Y140.988 E2.26808
G3 X124.551 Y141.215 I-2.514 J-4.17 E.01734
G1 X80.454 Y97.118 E2.25811
G1 X80.245 Y97.557 E.0176
G1 X124.116 Y141.428 E2.24654
G1 X123.68 Y141.641 E.01755
G1 X80.035 Y97.995 E2.23498
G2 X79.838 Y98.447 I4.349 J2.16 E.01785
G1 X123.245 Y141.853 E2.22274
G1 X122.809 Y142.066 E.01755
G1 X79.648 Y98.904 E2.21021
G1 X79.457 Y99.362 E.01795
G1 X122.362 Y142.267 E2.19708
G1 X121.907 Y142.46 E.01791
M73 P6 R28
M73 P6 R28
G1 X79.266 Y99.819 E2.18353
G2 X79.085 Y100.286 I4.707 J2.096 E.01815
G1 X121.451 Y142.653 E2.16949
G3 X120.971 Y142.821 I-1.393 J-3.209 E.01844
G1 X78.913 Y100.763 E2.1537
G2 X78.746 Y101.244 I4.654 J1.88 E.01846
G1 X120.481 Y142.979 E2.13713
G1 X119.979 Y143.125 E.01894
G1 X78.595 Y101.741 E2.11916
G1 X78.443 Y102.238 E.01881
G1 X119.476 Y143.271 E2.10119
G1 X118.974 Y143.417 E.01894
G1 X78.292 Y102.735 E2.08322
G2 X78.146 Y103.237 I5.121 J1.762 E.01895
G1 X118.462 Y143.553 E2.06448
G1 X117.938 Y143.677 E.01951
G1 X78.015 Y103.755 E2.04433
G2 X77.887 Y104.275 I5.046 J1.52 E.0194
G1 X117.414 Y143.801 E2.02405
G3 X116.876 Y143.912 I-1.28 J-4.875 E.01989
G1 X77.779 Y104.815 E2.00202
G1 X77.672 Y105.356 E.01996
G1 X116.326 Y144.01 E1.9794
G1 X115.777 Y144.109 E.02022
G1 X77.564 Y105.896 E1.95677
G2 X77.464 Y106.445 I5.668 J1.314 E.02019
G1 X115.227 Y144.208 E1.93374
G3 X114.653 Y144.282 I-.835 J-4.188 E.02097
G1 X77.38 Y107.009 E1.90868
G2 X77.304 Y107.581 I5.606 J1.036 E.02091
G1 X114.07 Y144.347 E1.88268
